src/assets/img/icons/duotone-icons/Layout/Layout-4-blocks.svg

<?xml version="1.0" encoding="UTF-8"?>
<svg width="24px" height="24px" viewBox="0 0 24 24" version="1.1" xmlns="http://www.w3.org/2000/svg" xmlns:xlink="http://www.w3.org/1999/xlink">
    <!-- Generator: Sketch 52.2 (67145) - http://www.bohemiancoding.com/sketch -->
    <title>Stockholm-icons / Layout / Layout-4-blocks</title>
    <desc>Created with Sketch.</desc>
    <g id="Stockholm-icons-/-Layout-/-Layout-4-blocks" stroke="none" stroke-width="1" fill="none" fill-rule="evenodd">
        <rect id="bound" x="0" y="0" width="24" height="24"></rect>
        <rect id="Rectangle-7" fill="#335EEA" x="4" y="4" width="7" height="7" rx="1.5"></rect>
        <path d="M5.5,13 L9.5,13 C10.3284271,13 11,13.6715729 11,14.5 L11,18.5 C11,19.3284271 10.3284271,20 9.5,20 L5.5,20 C4.67157288,20 4,19.3284271 4,18.5 L4,14.5 C4,13.6715729 4.67157288,13 5.5,13 Z M14.5,4 L18.5,4 C19.3284271,4 20,4.67157288 20,5.5 L20,9.5 C20,10.3284271 19.3284271,11 18.5,11 L14.5,11 C13.6715729,11 13,10.3284271 13,9.5 L13,5.5 C13,4.67157288 13.6715729,4 14.5,4 Z M14.5,13 L18.5,13 C19.3284271,13 20,13.6715729 20,14.5 L20,18.5 C20,19.3284271 19.3284271,20 18.5,20 L14.5,20 C13.6715729,20 13,19.3284271 13,18.5 L13,14.5 C13,13.6715729 13.6715729,13 14.5,13 Z" id="Combined-Shape" fill="#335EEA" opacity="0.3"></path>
    </g>
</svg>

<svg width="24" height="24" viewBox="0 0 24 24" xmlns="http://www.w3.org/2000/svg"><g fill="none" fill-rule="evenodd"><path d="M0 0h24v24H0z"/><rect fill="#335EEA" x="4" y="4" width="7" height="7" rx="1.5"/><path d="M5.5 13h4a1.5 1.5 0 011.5 1.5v4A1.5 1.5 0 019.5 20h-4A1.5 1.5 0 014 18.5v-4A1.5 1.5 0 015.5 13zm9-9h4A1.5 1.5 0 0120 5.5v4a1.5 1.5 0 01-1.5 1.5h-4A1.5 1.5 0 0113 9.5v-4A1.5 1.5 0 0114.5 4zm0 9h4a1.5 1.5 0 011.5 1.5v4a1.5 1.5 0 01-1.5 1.5h-4a1.5 1.5 0 01-1.5-1.5v-4a1.5 1.5 0 011.5-1.5z" fill="#335EEA" opacity=".3"/></g></svg>
